svgs/sharp-regular/arrow-up-right.svg

<svg xmlns="http://www.w3.org/2000/svg" viewBox="0 0 384 512"><!--! Font Awesome Pro 6.6.0 by @fontawesome - https://fontawesome.com License - https://fontawesome.com/license (Commercial License) Copyright 2024 Fonticons, Inc. --><path d="M328 96l24 0 0 24 0 240 0 24-48 0 0-24 0-182.1L81 401l-17 17L30.1 384l17-17 223-223L88 144l-24 0 0-48 24 0 240 0z"/></svg>

<svg xmlns="http://www.w3.org/2000/svg" viewBox="0 0 384 512"><!--! Font Awesome Pro 6.4.2 by @fontawesome - https://fontawesome.com License - https://fontawesome.com/license (Commercial License) Copyright 2023 Fonticons, Inc. --><path d="M328 96h24v24V360v24H304V360 177.9L81 401l-17 17L30.1 384l17-17 223-223H88 64V96H88 328z"/></svg>
